Adwaita++/apps/16/sviluppo.svg

<svg height="16" viewBox="0 0 16 16" width="16" xmlns="http://www.w3.org/2000/svg">
  <path d="m4.154.298c-.161 0-.308.12-.342.278-.033.159.055.319.203.384.014.006 1.32.594 2.842 2.19.682.716 1.401 1.664.919 2.136-.011.012-.069.078-.278.289-.02.02-.027.035-.043.053l-.011.011 2.617 2.617.246-.235c.005-.005.007-.016.011-.021l.384-.385.481.481c.139.139.106.482.064.566-.128.256-.104.526.064.695l1.186 1.185c.185.185.43.278.673.278s.478-.094.662-.278l1.891-1.88c.37-.369.369-.976 0-1.346l-1.186-1.186c-.172-.172-.431-.208-.652-.096-.103.052-.468.087-.598-.042l-.491-.492c.113-.159.173-.35.171-.545.002-.252-.098-.495-.278-.673l-1.282-1.282c-.006-.006-.029-.021-.042-.032l-.268-.267c-.558-.558-1.074-1.085-1.207-1.217-1.132-1.134-5.268-1.185-5.736-1.186zm2.81 5.821-6.687 6.688c-.369.369-.369.967 0 1.335l1.281 1.282c.185.185.43.278.673.278s.478-.093.663-.278l6.687-6.676z" fill="#474747"/>
</svg>

<svg xmlns="http://www.w3.org/2000/svg" style="isolation:isolate" width="16" height="16" viewBox="0 0 16 16">
 <defs>
  <style id="current-color-scheme" type="text/css">
   .ColorScheme-Text { color:#474747; } .ColorScheme-Highlight { color:#5294e2; }
  </style>
  <linearGradient id="arrongin" x1="0%" x2="0%" y1="0%" y2="100%">
   <stop offset="0%" style="stop-color:#dd9b44"/>
   <stop offset="100%" style="stop-color:#ad6c16"/>
  </linearGradient>
  <linearGradient id="aurora" x1="0%" x2="0%" y1="0%" y2="100%">
   <stop offset="0%" style="stop-color:#09D4DF"/>
   <stop offset="100%" style="stop-color:#9269F4"/>
  </linearGradient>
  <linearGradient id="fitdance" x1="0%" x2="0%" y1="0%" y2="100%">
   <stop offset="0%" style="stop-color:#1AD6AB"/>
   <stop offset="100%" style="stop-color:#329DB6"/>
  </linearGradient>
  <linearGradient id="oomox" x1="0%" x2="0%" y1="0%" y2="100%">
   <stop offset="0%" style="stop-color:#efefe7"/>
   <stop offset="100%" style="stop-color:#8f8f8b"/>
  </linearGradient>
  <linearGradient id="rainblue" x1="0%" x2="0%" y1="0%" y2="100%">
   <stop offset="0%" style="stop-color:#00F260"/>
   <stop offset="100%" style="stop-color:#0575E6"/>
  </linearGradient>
  <linearGradient id="sunrise" x1="0%" x2="0%" y1="0%" y2="100%">
   <stop offset="0%" style="stop-color:#FF8501"/>
   <stop offset="100%" style="stop-color:#FFCB01"/>
  </linearGradient>
  <linearGradient id="telinkrin" x1="0%" x2="0%" y1="0%" y2="100%">
   <stop offset="0%" style="stop-color:#b2ced6"/>
   <stop offset="100%" style="stop-color:#6da5b7"/>
  </linearGradient>
  <linearGradient id="60spsycho" x1="0%" x2="0%" y1="0%" y2="100%">
   <stop offset="0%" style="stop-color:#df5940"/>
   <stop offset="25%" style="stop-color:#d8d15f"/>
   <stop offset="50%" style="stop-color:#e9882a"/>
   <stop offset="100%" style="stop-color:#279362"/>
  </linearGradient>
  <linearGradient id="90ssummer" x1="0%" x2="0%" y1="0%" y2="100%">
   <stop offset="0%" style="stop-color:#f618c7"/>
   <stop offset="20%" style="stop-color:#94ffab"/>
   <stop offset="50%" style="stop-color:#fbfd54"/>
   <stop offset="100%" style="stop-color:#0f83ae"/>
  </linearGradient>
 </defs>
 <path style="fill:currentColor" class="ColorScheme-Text" d="M 4.154 0.298 C 3.993 0.298 3.846 0.418 3.812 0.576 C 3.779 0.735 3.867 0.895 4.015 0.96 C 4.029 0.966 5.335 1.554 6.857 3.15 C 7.539 3.866 8.258 4.814 7.776 5.286 C 7.765 5.298 7.707 5.364 7.498 5.575 C 7.478 5.595 7.471 5.61 7.455 5.628 L 7.444 5.639 L 10.061 8.256 L 10.307 8.021 C 10.312 8.016 10.314 8.005 10.318 8 L 10.702 7.615 L 11.183 8.096 C 11.322 8.235 11.289 8.578 11.247 8.662 C 11.119 8.918 11.143 9.188 11.311 9.357 L 12.497 10.542 C 12.682 10.727 12.927 10.82 13.17 10.82 C 13.413 10.82 13.648 10.726 13.832 10.542 L 15.723 8.662 C 16.093 8.293 16.092 7.686 15.723 7.316 L 14.537 6.13 C 14.365 5.958 14.106 5.922 13.885 6.034 C 13.782 6.086 13.417 6.121 13.287 5.992 L 12.796 5.5 C 12.909 5.341 12.969 5.15 12.967 4.955 C 12.969 4.703 12.869 4.46 12.689 4.282 L 11.407 3 C 11.401 2.994 11.378 2.979 11.365 2.968 L 11.097 2.701 C 10.539 2.143 10.023 1.616 9.89 1.484 C 8.758 0.35 4.622 0.299 4.154 0.298 Z M 6.964 6.119 L 0.277 12.807 C -0.092 13.176 -0.092 13.774 0.277 14.142 L 1.558 15.424 C 1.743 15.609 1.988 15.702 2.231 15.702 C 2.474 15.702 2.709 15.609 2.894 15.424 L 9.581 8.748 L 6.964 6.119 Z"/>
</svg>
